X: 1
T: Rising Phoenix
T: 8x32R 3C (Bob McMurtry, Devil's Quandry)
P: Rising Phoenix
R: reel
C: by Bob McMurtry
C: arr. T. Traub 8-23-2015
M: 4/4
K: Am
EG|"Am"AGAB "C"c2 BA|"Em"GEDE "G"G2 AB|"Am"c2 dc "G"BGEG|"F"A2 "G"AB "Am"A2 EG|"Am"AGAB "C"c2 ce|
"G"gedB "Em"G2 AB|"Am"c2 ec "G"BGAB|"F"A2 "G"AG "Am"A2 AB|| "C"cdef g2 fe|"G"dBGB d2 cB|"Am"AGAB "F"cedc|
"G"BGG^F G2 cB|"Am"Aaab "Em"aede|"Dm"fgef "G"d2 gf|"Am"edcA "G"dcBG|"F"A2 AG "Am"A2 |]
